public/img/clients/smartslips.svg

<svg width="200" height="100" viewBox="0 0 200 100" fill="none" xmlns="http://www.w3.org/2000/svg">
<path fill-rule="evenodd" clip-rule="evenodd" d="M60.284 53.0001C60.594 53.5151 60.747 54.1421 60.747 54.8821V54.9441C60.747 55.8081 60.594 56.5591 60.284 57.1971C59.974 57.8351 59.547 58.3641 59 58.7851C58.454 59.2091 57.81 59.5271 57.067 59.7421C56.325 59.9591 55.53 60.0661 54.687 60.0661C53.51 60.0661 52.32 59.8581 51.114 59.4411C49.907 59.0261 48.789 58.4111 47.758 57.5991L49.428 55.0591C50.315 55.7171 51.216 56.2171 52.135 56.5571C53.052 56.8971 53.932 57.0671 54.779 57.0671C55.582 57.0671 56.204 56.9071 56.649 56.5871C57.092 56.2701 57.314 55.8451 57.314 55.3071V55.2471C57.314 54.9391 57.214 54.6711 57.019 54.4451C56.824 54.2191 56.556 54.0231 56.216 53.8581C55.876 53.6941 55.484 53.5381 55.041 53.3961C54.597 53.2511 54.138 53.1061 53.664 52.9641C53.066 52.7991 52.464 52.6041 51.854 52.3781C51.246 52.1511 50.7 51.8581 50.214 51.4981C49.731 51.1381 49.334 50.6901 49.024 50.1561C48.716 49.6211 48.561 48.9631 48.561 48.1811V48.1181C48.561 47.3581 48.711 46.6681 49.009 46.0511C49.309 45.4341 49.721 44.9091 50.247 44.4771C50.772 44.0451 51.392 43.7171 52.103 43.4901C52.813 43.2631 53.571 43.1501 54.376 43.1501C55.406 43.1501 56.448 43.3161 57.5 43.6501C58.552 43.9821 59.51 44.4401 60.377 45.0241L58.893 47.6941C58.108 47.2201 57.315 46.8441 56.511 46.5671C55.708 46.2871 54.965 46.1501 54.285 46.1501C53.563 46.1501 53.001 46.3031 52.599 46.6121C52.199 46.9221 51.996 47.3121 51.996 47.7821V47.8461C51.996 48.1341 52.1 48.3861 52.306 48.6021C52.511 48.8191 52.786 49.0141 53.126 49.1901C53.466 49.3641 53.856 49.5281 54.3 49.6821C54.743 49.8371 55.2 49.9861 55.675 50.1301C56.275 50.3151 56.871 50.5301 57.469 50.7781C58.067 51.0251 58.609 51.3281 59.092 51.6881C59.577 52.0481 59.974 52.4861 60.282 52.9981L60.284 53.0001ZM82.134 43.0871C80.894 43.0871 79.824 43.3531 78.924 43.8831C78.024 44.4131 77.244 45.1161 76.584 45.9891C76.151 45.1151 75.529 44.4121 74.717 43.8821C73.907 43.3521 72.914 43.0861 71.744 43.0861C71.126 43.0861 70.564 43.1661 70.062 43.3211C69.558 43.4771 69.105 43.6911 68.705 43.9611C68.305 44.2311 67.951 44.5331 67.642 44.8661C67.332 45.1981 67.046 45.5521 66.778 45.9261V43.4261H63.006V59.7561H66.778V50.5921C66.778 49.3171 67.096 48.3191 67.733 47.5991C68.369 46.8791 69.21 46.5191 70.258 46.5191C71.304 46.5191 72.115 46.8591 72.688 47.5391C73.265 48.2161 73.552 49.1941 73.552 50.4691V59.7561H77.325V50.5611C77.325 49.2451 77.648 48.2411 78.295 47.5531C78.942 46.8631 79.777 46.5191 80.805 46.5191C81.852 46.5191 82.661 46.8591 83.237 47.5391C83.811 48.2161 84.099 49.2031 84.099 50.4991V59.7561H87.871V49.3341C87.871 47.3361 87.363 45.7941 86.351 44.7101C85.338 43.6281 83.931 43.0871 82.133 43.0871H82.134ZM102.779 44.9891C103.953 46.1941 104.541 47.8891 104.541 50.0761V59.7561H100.829V57.7461C100.273 58.4061 99.561 58.9621 98.696 59.4161C97.828 59.8701 96.776 60.0961 95.539 60.0961C94.756 60.0961 94.014 59.9881 93.313 59.7711C92.613 59.5551 92 59.2361 91.473 58.8141C90.947 58.3901 90.525 57.8641 90.206 57.2361C89.886 56.6061 89.726 55.8801 89.726 55.0561V54.9931C89.726 54.0861 89.89 53.2971 90.22 52.6271C90.552 51.9571 91.01 51.4011 91.598 50.9571C92.186 50.5141 92.885 50.1841 93.701 49.9671C94.517 49.7501 95.397 49.6431 96.346 49.6431C97.336 49.6431 98.176 49.7051 98.866 49.8291C99.558 49.9521 100.222 50.1191 100.861 50.3231V50.0151C100.861 48.8811 100.516 48.0151 99.826 47.4171C99.134 46.8171 98.14 46.5191 96.842 46.5191C95.914 46.5191 95.089 46.6111 94.368 46.7991C93.645 46.9841 92.915 47.2311 92.171 47.5391L91.151 44.5391C92.058 44.1271 92.985 43.7991 93.934 43.5491C94.882 43.3031 96.024 43.1791 97.367 43.1791C99.8 43.1791 101.604 43.7821 102.78 44.9891H102.779ZM100.921 52.9211C100.448 52.7351 99.886 52.5811 99.236 52.4571C98.586 52.3341 97.902 52.2711 97.18 52.2711C96.005 52.2711 95.087 52.4991 94.428 52.9511C93.768 53.4061 93.438 54.0231 93.438 54.8081V54.8681C93.438 55.6521 93.742 56.2481 94.351 56.6621C94.961 57.0761 95.707 57.2821 96.594 57.2821C97.212 57.2821 97.784 57.1991 98.309 57.0341C98.836 56.8691 99.294 56.6381 99.686 56.3371C100.078 56.0391 100.382 55.6771 100.599 55.2551C100.815 54.8311 100.923 54.3651 100.923 53.8471V52.9191L100.921 52.9211ZM111.219 47.1071V43.4271H107.447V59.7571H111.219V53.5401C111.219 52.4701 111.353 51.5251 111.623 50.7101C111.89 49.8971 112.273 49.2221 112.767 48.6851C113.261 48.1491 113.849 47.7471 114.529 47.4801C115.211 47.2101 115.963 47.0771 116.789 47.0771H117.005V43.1201C115.561 43.0561 114.365 43.3971 113.417 44.1401C112.467 44.8821 111.737 45.8701 111.219 47.1081V47.1071ZM123.219 38.9421H119.447V43.4271H117.375V46.6421H119.447V55.2421C119.447 56.1481 119.561 56.9061 119.79 57.5141C120.02 58.1241 120.346 58.6121 120.773 58.9841C121.198 59.3541 121.703 59.6221 122.286 59.7871C122.868 59.9521 123.499 60.0351 124.18 60.0351C124.88 60.0351 125.5 59.9631 126.034 59.8181C126.572 59.6731 127.077 59.4681 127.551 59.1981V56.1401C126.811 56.5131 126.035 56.6971 125.231 56.6971C124.593 56.6971 124.097 56.5371 123.748 56.2171C123.398 55.8991 123.222 55.3771 123.222 54.6571V46.6451H127.615V43.4301H123.223V38.9451L123.219 38.9421ZM139.812 51.6881C139.327 51.3281 138.787 51.0231 138.188 50.7761C137.588 50.5291 136.992 50.3131 136.393 50.1281C135.919 49.9841 135.461 49.8351 135.017 49.6801C134.574 49.5261 134.181 49.3621 133.84 49.1881C133.5 49.0121 133.228 48.8181 133.02 48.6001C132.817 48.3851 132.712 48.1321 132.712 47.8441V47.7811C132.712 47.3111 132.914 46.9191 133.316 46.6111C133.716 46.3011 134.278 46.1481 135 46.1481C135.68 46.1481 136.423 46.2861 137.228 46.5651C138.031 46.8431 138.825 47.2181 139.608 47.6931L141.093 45.0231C140.227 44.4391 139.269 43.9801 138.216 43.6471C137.166 43.3131 136.126 43.1471 135.093 43.1471C134.288 43.1471 133.531 43.2601 132.82 43.4871C132.11 43.7121 131.49 44.0411 130.964 44.4731C130.439 44.9051 130.024 45.4301 129.727 46.0471C129.429 46.6651 129.28 47.3531 129.28 48.1141V48.1771C129.28 48.9591 129.434 49.6171 129.744 50.1521C130.054 50.6861 130.448 51.1341 130.934 51.4921C131.417 51.8541 131.964 52.1471 132.574 52.3741C133.182 52.6001 133.784 52.7941 134.382 52.9601C134.857 53.1031 135.315 53.2471 135.758 53.3921C136.204 53.5351 136.595 53.6901 136.935 53.8541C137.277 54.0191 137.543 54.2141 137.739 54.4411C137.935 54.6671 138.034 54.9351 138.034 55.2441V55.3041C138.034 55.8411 137.812 56.2661 137.369 56.5841C136.926 56.9041 136.302 57.0641 135.497 57.0641C134.652 57.0641 133.771 56.8941 132.854 56.5541C131.934 56.2141 131.034 55.7141 130.148 55.0541L128.476 57.5941C129.506 58.4061 130.626 59.0221 131.831 59.4381C133.038 59.8561 134.229 60.0641 135.405 60.0641C136.248 60.0641 137.045 59.9571 137.785 59.7401C138.527 59.5251 139.172 59.2071 139.719 58.7831C140.265 58.3631 140.694 57.8331 141.004 57.1951C141.314 56.5571 141.467 55.8051 141.467 54.9421V54.8801C141.467 54.1401 141.313 53.5131 141.004 52.9971C140.694 52.4831 140.296 52.0471 139.812 51.6871V51.6881ZM143.942 59.7551H147.714V37.1801H143.942V59.7571V59.7551ZM151.086 40.9211H155.136V37.3641H151.086V40.9211ZM151.24 59.7551H155.015V43.4251H151.241V59.7551H151.24ZM174.56 47.9411C174.994 48.9931 175.21 50.1981 175.21 51.5591V51.6231C175.21 52.9831 174.998 54.1901 174.578 55.2411C174.155 56.2911 173.588 57.1781 172.88 57.9011C172.17 58.6211 171.358 59.1691 170.442 59.5391C169.527 59.9091 168.587 60.0961 167.619 60.0961C166.282 60.0961 165.169 59.8081 164.286 59.2311C163.401 58.6531 162.671 57.9841 162.096 57.2211V64.7051H158.322V43.4281H162.095V46.1501C162.692 45.2831 163.433 44.5571 164.315 43.9681C165.202 43.3811 166.303 43.0881 167.618 43.0881C168.585 43.0881 169.518 43.2731 170.426 43.6441C171.33 44.0141 172.136 44.5611 172.848 45.2841C173.558 46.0041 174.128 46.8921 174.558 47.9441L174.56 47.9411ZM171.437 51.5591C171.437 50.7771 171.314 50.0591 171.064 49.4121C170.817 48.7621 170.482 48.2091 170.06 47.7571C169.638 47.3021 169.143 46.9521 168.576 46.7071C168.008 46.4571 167.406 46.3331 166.766 46.3331C166.128 46.3331 165.519 46.4571 164.942 46.7061C164.364 46.9521 163.86 47.3081 163.427 47.7721C162.994 48.2351 162.647 48.7871 162.39 49.4261C162.133 50.0661 162.004 50.7761 162.004 51.5601V51.6241C162.004 52.4061 162.134 53.1241 162.39 53.7721C162.648 54.4221 162.994 54.9751 163.427 55.4271C163.86 55.8811 164.364 56.2311 164.942 56.4791C165.519 56.7251 166.128 56.8491 166.767 56.8491C167.407 56.8491 168.007 56.7251 168.577 56.4791C169.143 56.2291 169.637 55.8851 170.06 55.4411C170.482 54.9991 170.817 54.4531 171.064 53.8031C171.314 53.1531 171.437 52.4271 171.437 51.6231V51.5601V51.5591ZM188.694 53.0001C188.384 52.4861 187.988 52.0501 187.504 51.6901C187.019 51.3301 186.478 51.0251 185.88 50.7781C185.282 50.5311 184.683 50.3151 184.086 50.1301C183.611 49.9861 183.154 49.8371 182.71 49.6821C182.266 49.5281 181.876 49.3641 181.535 49.1901C181.195 49.0141 180.92 48.8201 180.715 48.6021C180.508 48.3871 180.405 48.1341 180.405 47.8461V47.7831C180.405 47.3131 180.607 46.9211 181.01 46.6131C181.41 46.3031 181.972 46.1501 182.693 46.1501C183.375 46.1501 184.116 46.2881 184.921 46.5671C185.727 46.8451 186.521 47.2201 187.305 47.6951L188.789 45.0251C187.923 44.4411 186.963 43.9821 185.912 43.6491C184.862 43.3151 183.82 43.1491 182.789 43.1491C181.985 43.1491 181.227 43.2621 180.516 43.4891C179.806 43.7141 179.186 44.0431 178.661 44.4751C178.134 44.9071 177.721 45.4321 177.421 46.0491C177.123 46.6671 176.973 47.3551 176.973 48.1161V48.1791C176.973 48.9611 177.129 49.6191 177.439 50.1541C177.747 50.6881 178.144 51.1361 178.629 51.4941C179.113 51.8561 179.659 52.1491 180.269 52.3761C180.875 52.6021 181.479 52.7961 182.077 52.9621C182.551 53.1051 183.01 53.2491 183.452 53.3941C183.898 53.5371 184.29 53.6921 184.629 53.8561C184.969 54.0211 185.237 54.2161 185.434 54.4431C185.629 54.6691 185.728 54.9371 185.728 55.2461V55.3061C185.728 55.8431 185.506 56.2681 185.063 56.5861C184.619 56.9061 183.996 57.0661 183.193 57.0661C182.348 57.0661 181.463 56.8961 180.548 56.5561C179.631 56.2161 178.728 55.7161 177.843 55.0561L176.171 57.5961C177.203 58.4081 178.321 59.0241 179.527 59.4401C180.734 59.8581 181.924 60.0661 183.099 60.0661C183.946 60.0661 184.739 59.9591 185.481 59.7421C186.223 59.5271 186.868 59.2091 187.415 58.7851C187.959 58.3651 188.388 57.8351 188.697 57.1971C189.007 56.5591 189.162 55.8071 189.162 54.9441V54.8821C189.162 54.1421 189.006 53.5151 188.696 52.9991L188.694 53.0001ZM38.698 40.3781C38.15 36.5181 32.123 32.7581 24.77 32.7581C17.416 32.7581 11.39 36.5181 10.84 40.3781V59.6681C11.39 64.1701 17.416 67.2881 24.77 67.2881C32.123 67.2881 38.15 64.1701 38.698 59.6681V40.3801V40.3781ZM16.4 40.9281C16.4 38.5721 19.766 36.8611 24.373 36.8611C27.616 36.8611 30.343 37.4591 32.94 38.7471C33.004 38.7791 33.07 38.7871 33.12 38.7871V44.9571C33.12 44.9841 33.244 45.0111 33.22 45.0371C33.173 45.0851 33.16 45.1221 33.073 45.1221C33.025 45.1221 32.988 45.1161 32.916 45.0791C30.318 43.7931 27.62 43.1961 24.376 43.1961C22.279 43.1961 20.453 43.5501 19.074 44.1591L18.808 44.0431C18.664 43.9791 18.508 43.9131 18.378 43.8451C17.024 43.1331 16.4 42.2501 16.4 40.9851V40.9301V40.9281ZM15.757 48.4011V42.1241C15.757 43.4091 16.477 44.3461 17.839 45.0771C17.967 45.1471 18.147 45.2131 18.289 45.2791C18.377 45.3191 18.489 45.3591 18.581 45.3991C20.037 46.0131 22.185 46.4991 25.089 46.8791C28.481 47.3171 30.574 47.8521 31.933 48.5591C33.263 49.2511 33.761 50.1491 33.761 51.3891V51.4421C33.761 52.6221 33.098 53.6451 31.756 54.3921C31.621 54.4691 31.541 54.5421 31.396 54.6121C30.014 54.0401 27.996 53.5901 25.068 53.2121C21.675 52.7701 19.258 52.1801 17.821 51.4101C16.461 50.6801 15.755 49.7401 15.755 48.4561V48.4001L15.757 48.4011ZM34.405 58.5951V58.6481C34.405 59.9631 33.629 61.0961 32.045 61.9281C30.447 62.7681 28.197 63.2311 25.655 63.2311C21.629 63.2311 18.439 62.4581 15.165 60.7281C15.145 60.7181 15.113 60.6661 15.113 60.6041V54.3541C15.131 54.3741 15.146 54.3911 15.155 54.3961C18.428 56.1261 21.671 56.8991 25.699 56.8991C28.071 56.8991 30.209 56.4961 31.785 55.7591C31.895 55.7061 32.001 55.6511 32.107 55.5991C32.14 55.5791 32.11 55.5611 32.143 55.5441C33.663 54.7171 34.403 53.6041 34.403 52.3161V58.5961L34.405 58.5951Z" fill="black"/>
</svg>

<svg xmlns="http://www.w3.org/2000/svg" focusable="false" role="img" viewBox="0 0 200 100" fill="currentColor">
  <path fill-rule="evenodd" d="M60.284 53c.31.515.463 1.142.463 1.882v.062c0 .864-.153 1.615-.463 2.253A4.394 4.394 0 0159 58.785c-.546.424-1.19.742-1.933.957a8.45 8.45 0 01-2.38.324c-1.177 0-2.367-.208-3.573-.625a11.37 11.37 0 01-3.356-1.842l1.67-2.54c.887.658 1.788 1.158 2.707 1.498.917.34 1.797.51 2.644.51.803 0 1.425-.16 1.87-.48.443-.317.665-.742.665-1.28v-.06c0-.308-.1-.576-.295-.802a2.463 2.463 0 00-.803-.587 9.122 9.122 0 00-1.175-.462c-.444-.145-.903-.29-1.377-.432a22.21 22.21 0 01-1.81-.586 6.633 6.633 0 01-1.64-.88 4.425 4.425 0 01-1.19-1.342c-.308-.535-.463-1.193-.463-1.975v-.063c0-.76.15-1.45.448-2.067.3-.617.712-1.142 1.238-1.574a5.537 5.537 0 011.856-.987 7.423 7.423 0 012.273-.34c1.03 0 2.072.166 3.124.5 1.052.332 2.01.79 2.877 1.374l-1.484 2.67a12.462 12.462 0 00-2.382-1.127c-.803-.28-1.546-.417-2.226-.417-.722 0-1.284.153-1.686.462-.4.31-.603.7-.603 1.17v.064c0 .288.104.54.31.756.205.217.48.412.82.588.34.174.73.338 1.174.492.443.155.9.304 1.375.448.6.185 1.196.4 1.794.648.598.247 1.14.55 1.623.91.485.36.882.798 1.19 1.31l.002.002zm21.85-9.913c-1.24 0-2.31.266-3.21.796-.9.53-1.68 1.233-2.34 2.106a5.258 5.258 0 00-1.867-2.107c-.81-.53-1.803-.796-2.973-.796-.618 0-1.18.08-1.682.235-.504.156-.957.37-1.357.64s-.754.572-1.063.905c-.31.332-.596.686-.864 1.06v-2.5h-3.772v16.33h3.772v-9.164c0-1.275.318-2.273.955-2.993.636-.72 1.477-1.08 2.525-1.08 1.046 0 1.857.34 2.43 1.02.577.677.864 1.655.864 2.93v9.287h3.773v-9.195c0-1.316.323-2.32.97-3.008.647-.69 1.482-1.034 2.51-1.034 1.047 0 1.856.34 2.432 1.02.574.677.862 1.664.862 2.96v9.257h3.772V49.334c0-1.998-.508-3.54-1.52-4.624-1.013-1.082-2.42-1.623-4.218-1.623h.001zm20.645 1.902c1.174 1.205 1.762 2.9 1.762 5.087v9.68h-3.712v-2.01c-.556.66-1.268 1.216-2.133 1.67-.868.454-1.92.68-3.157.68a7.486 7.486 0 01-2.226-.325 5.507 5.507 0 01-1.84-.957 4.775 4.775 0 01-1.267-1.578c-.32-.63-.48-1.356-.48-2.18v-.063c0-.907.164-1.696.494-2.366.332-.67.79-1.226 1.378-1.67.588-.443 1.287-.773 2.103-.99a10.256 10.256 0 012.645-.324c.99 0 1.83.062 2.52.186.692.123 1.356.29 1.995.494v-.308c0-1.134-.345-2-1.035-2.598-.692-.6-1.686-.898-2.984-.898-.928 0-1.753.092-2.474.28-.723.185-1.453.432-2.197.74l-1.02-3c.907-.412 1.834-.74 2.783-.99.948-.246 2.09-.37 3.433-.37 2.433 0 4.237.603 5.413 1.81h-.001zm-1.858 7.932a9.515 9.515 0 00-1.685-.464 11.032 11.032 0 00-2.056-.186c-1.175 0-2.093.228-2.752.68-.66.455-.99 1.072-.99 1.857v.06c0 .784.304 1.38.913 1.794.61.414 1.356.62 2.243.62.618 0 1.19-.083 1.715-.248a4.386 4.386 0 001.377-.697c.392-.298.696-.66.913-1.082.216-.424.324-.89.324-1.408v-.928l-.002.002zm10.298-5.814v-3.68h-3.772v16.33h3.772V53.54c0-1.07.134-2.015.404-2.83.267-.813.65-1.488 1.144-2.025a4.706 4.706 0 011.762-1.205c.682-.27 1.434-.403 2.26-.403h.216V43.12c-1.444-.064-2.64.277-3.588 1.02-.95.742-1.68 1.73-2.198 2.968v-.001zm12-8.165h-3.772v4.485h-2.072v3.215h2.072v8.6c0 .906.114 1.664.343 2.272.23.61.556 1.098.983 1.47.425.37.93.638 1.513.803a6.92 6.92 0 001.894.248c.7 0 1.32-.072 1.854-.217a6.424 6.424 0 001.517-.62V56.14a5.095 5.095 0 01-2.32.557c-.638 0-1.134-.16-1.483-.48-.35-.318-.526-.84-.526-1.56v-8.012h4.393V43.43h-4.392v-4.485l-.004-.003zm16.593 12.746a7.519 7.519 0 00-1.624-.912c-.6-.247-1.196-.463-1.795-.648a35.346 35.346 0 01-1.376-.448 9.373 9.373 0 01-1.177-.492 3.065 3.065 0 01-.82-.588 1.07 1.07 0 01-.308-.756v-.063c0-.47.202-.862.604-1.17.4-.31.962-.463 1.684-.463.68 0 1.423.138 2.228.417.803.278 1.597.653 2.38 1.128l1.485-2.67a11.094 11.094 0 00-2.877-1.376c-1.05-.334-2.09-.5-3.123-.5-.805 0-1.562.113-2.273.34-.71.225-1.33.554-1.856.986-.525.432-.94.957-1.237 1.574-.298.618-.447 1.306-.447 2.067v.063c0 .782.154 1.44.464 1.975.31.534.704.982 1.19 1.34.483.362 1.03.655 1.64.882.608.226 1.21.42 1.808.586.475.143.933.287 1.376.432.446.143.837.298 1.177.462.342.165.608.36.804.587.196.226.295.494.295.803v.06c0 .537-.222.962-.665 1.28-.443.32-1.067.48-1.872.48-.845 0-1.726-.17-2.643-.51-.92-.34-1.82-.84-2.706-1.5l-1.672 2.54c1.03.812 2.15 1.428 3.355 1.844 1.207.418 2.398.626 3.574.626a8.44 8.44 0 002.38-.324c.742-.215 1.387-.533 1.934-.957.546-.42.975-.95 1.285-1.588.31-.638.463-1.39.463-2.253v-.062c0-.74-.154-1.367-.463-1.883a4.544 4.544 0 00-1.192-1.31v.001zm4.13 8.067h3.772V37.18h-3.772v22.577-.002zm7.144-18.834h4.05v-3.557h-4.05v3.557zm.154 18.834h3.775v-16.33h-3.774v16.33h-.001zm23.32-11.814c.434 1.052.65 2.257.65 3.618v.064c0 1.36-.212 2.567-.632 3.618-.423 1.05-.99 1.937-1.698 2.66a7.169 7.169 0 01-2.438 1.638 7.464 7.464 0 01-2.823.557c-1.337 0-2.45-.288-3.333-.865-.885-.578-1.615-1.247-2.19-2.01v7.484h-3.774V43.428h3.773v2.722a8.189 8.189 0 012.22-2.182c.887-.587 1.988-.88 3.303-.88.967 0 1.9.185 2.808.556.904.37 1.71.917 2.422 1.64.71.72 1.28 1.608 1.71 2.66l.002-.003zm-3.123 3.618c0-.782-.123-1.5-.373-2.147a4.993 4.993 0 00-1.004-1.655 4.365 4.365 0 00-1.484-1.05 4.438 4.438 0 00-1.81-.374 4.558 4.558 0 00-3.339 1.439 5.28 5.28 0 00-1.037 1.654c-.257.64-.386 1.35-.386 2.134v.064c0 .782.13 1.5.386 2.148a5.06 5.06 0 001.037 1.655c.433.454.937.804 1.515 1.052.577.246 1.186.37 1.825.37a4.508 4.508 0 003.293-1.408c.422-.442.757-.988 1.004-1.638.25-.65.373-1.376.373-2.18v-.064zM188.694 53a4.537 4.537 0 00-1.19-1.31 7.542 7.542 0 00-1.624-.912 20.93 20.93 0 00-1.794-.648 34.8 34.8 0 01-1.376-.448 9.275 9.275 0 01-1.175-.492 3.018 3.018 0 01-.82-.588 1.056 1.056 0 01-.31-.756v-.063c0-.47.202-.862.605-1.17.4-.31.962-.463 1.683-.463.682 0 1.423.138 2.228.417.806.278 1.6.653 2.384 1.128l1.484-2.67a11.125 11.125 0 00-2.877-1.376c-1.05-.334-2.092-.5-3.123-.5-.804 0-1.562.113-2.273.34-.71.225-1.33.554-1.855.986-.527.432-.94.957-1.24 1.574-.298.618-.448 1.306-.448 2.067v.063c0 .782.156 1.44.466 1.975.308.534.705.982 1.19 1.34.484.362 1.03.655 1.64.882.606.226 1.21.42 1.808.586a60.2 60.2 0 011.375.432c.446.143.838.298 1.177.462.34.165.608.36.805.587.195.226.294.494.294.803v.06c0 .537-.222.962-.665 1.28-.444.32-1.067.48-1.87.48-.845 0-1.73-.17-2.645-.51-.917-.34-1.82-.84-2.705-1.5l-1.672 2.54a11.424 11.424 0 003.356 1.844c1.207.418 2.397.626 3.572.626.847 0 1.64-.107 2.382-.324.742-.215 1.387-.533 1.934-.957.544-.42.973-.95 1.282-1.588.31-.638.465-1.39.465-2.253v-.062c0-.74-.156-1.367-.466-1.883l-.002.001zM38.698 40.378c-.548-3.86-6.575-7.62-13.928-7.62-7.354 0-13.38 3.76-13.93 7.62v19.29c.55 4.502 6.576 7.62 13.93 7.62 7.353 0 13.38-3.118 13.928-7.62v-19.29zm-22.298.55c0-2.356 3.366-4.067 7.973-4.067 3.243 0 5.97.598 8.567 1.886.064.032.13.04.18.04v6.17c0 .027.124.054.1.08-.047.048-.06.085-.147.085a.3.3 0 01-.157-.043c-2.598-1.286-5.296-1.883-8.54-1.883-2.097 0-3.923.354-5.302.963l-.266-.116c-.144-.064-.3-.13-.43-.198-1.354-.712-1.978-1.595-1.978-2.86v-.057zm-.643 7.473v-6.277c0 1.285.72 2.222 2.082 2.953.128.07.308.136.45.202.088.04.2.08.292.12 1.456.614 3.604 1.1 6.508 1.48 3.392.438 5.485.973 6.844 1.68 1.33.692 1.828 1.59 1.828 2.83v.053c0 1.18-.663 2.203-2.005 2.95-.135.077-.215.15-.36.22-1.382-.572-3.4-1.022-6.328-1.4-3.393-.442-5.81-1.032-7.247-1.802-1.36-.73-2.066-1.67-2.066-2.954V48.4l.002.001zm18.648 10.194v.053c0 1.315-.776 2.448-2.36 3.28-1.598.84-3.848 1.303-6.39 1.303-4.026 0-7.216-.773-10.49-2.503-.02-.01-.052-.062-.052-.124v-6.25c.018.02.033.037.042.042 3.273 1.73 6.516 2.503 10.544 2.503 2.372 0 4.51-.403 6.086-1.14.11-.053.216-.108.322-.16.033-.02.003-.038.036-.055 1.52-.827 2.26-1.94 2.26-3.228v6.28l.002-.001z" clip-rule="evenodd"/>
</svg>
